X:1959
T:Idiotvalsen motmelodi
R:Vals
Z:Anton Teljebäck
M:3/4
L:1/8
K:Dm
|: az az az | gz gz gz | fz fz fz | e6 | cz cz cz | cz cz cz | =Bz Bz Bz | A6 :|
|:D2 E2 F2 | G6 | E2 F2 G2 | A6 | F2 G2 A2 | A2 _B2 B2 | A2 =B2 ^c2 | d6 :|
|:D2 E2 F2 | A6 | =B2 B2 B2| ^c4 d2 | D2 E2 F2 | F4 G2 | A2 =B2 ^c2 | d6 :|
(:musicend:)
(:music:)
